X: 33926
T: Red Tom Of The Hills
R: reel
M: 4/4
K: Gmajor
GF|DGGF DE=FD|GABc defa|gfdc (3Bcd BG|(3ABc AF DE=FD|
GDBD cAFD|GABc defa|gfdc (3Bcd BG|(3ABc AF G3||

